dist/svg/static/indicators-small.svg

<svg xmlns="http://www.w3.org/2000/svg" width="24" height="24" viewBox="0 0 24 24"><path d="M13.5 13.5v-4h4v-4l5.75 6.004-5.75 5.992V13.5h-4zm-3 0v-4h-4v-4L.75 11.504l5.75 5.992V13.5h4z" fill="none" stroke="currentColor" stroke-miterlimit="10"/></svg>

<?xml version="1.0" encoding="UTF-8" standalone="no"?>
<svg width="24px" height="24px" viewBox="0 0 24 24" version="1.1" xmlns="http://www.w3.org/2000/svg" xmlns:xlink="http://www.w3.org/1999/xlink">
    <!-- Generator: sketchtool 46.2 (44496) - http://www.bohemiancoding.com/sketch -->
    <title>indicators-small</title>
    <desc>Created with sketchtool.</desc>
    <defs></defs>
    <g id="icons-published" stroke="none" stroke-width="1" fill="none" fill-rule="evenodd">
        <g id="briefing" transform="translate(-3236.000000, -794.000000)"></g>
        <g id="indicators-small" stroke="#000000">
            <path d="M13.5,13.5 L13.5,9.5 L17.5,9.5 L17.5,5.5 L23.3,11.5 L17.5,17.5 L17.5,13.5 L13.5,13.5 Z M10.5,13.5 L10.5,9.5 L6.5,9.5 L6.5,5.5 L0.7,11.5 L6.5,17.5 L6.5,13.5 L10.5,13.5 Z" id="Shape"></path>
        </g>
    </g>
</svg>
